libs/icons/src/svg/arrow-corner.svg

<svg width="16" height="16" viewBox="0 0 16 16" fill="none" xmlns="http://www.w3.org/2000/svg">
<g clip-path="url(#clip0_3_3337)">
<path fill-rule="evenodd" clip-rule="evenodd" d="M4.66667 0.666672C5.03486 0.666672 5.33333 0.965149 5.33333 1.33334V10.6667H14.6667C15.0349 10.6667 15.3333 10.9651 15.3333 11.3333C15.3333 11.7015 15.0349 12 14.6667 12H4.66667C4.29848 12 4 11.7015 4 11.3333V1.33334C4 0.965149 4.29848 0.666672 4.66667 0.666672Z" fill="#202327"/>
<path fill-rule="evenodd" clip-rule="evenodd" d="M10.8619 7.52861C11.1222 7.26826 11.5443 7.26826 11.8047 7.52861L15.138 10.8619C15.3984 11.1223 15.3984 11.5444 15.138 11.8047L11.8047 15.1381C11.5443 15.3984 11.1222 15.3984 10.8619 15.1381C10.6015 14.8777 10.6015 14.4556 10.8619 14.1953L13.7238 11.3333L10.8619 8.47141C10.6015 8.21107 10.6015 7.78896 10.8619 7.52861Z" fill="#202327"/>
<path fill-rule="evenodd" clip-rule="evenodd" d="M4.19522 0.861934C4.45557 0.601584 4.87768 0.601584 5.13803 0.861934L8.47136 4.19527C8.73171 4.45562 8.73171 4.87773 8.47136 5.13808C8.21102 5.39843 7.78891 5.39843 7.52856 5.13808L4.66663 2.27615L1.8047 5.13808C1.54435 5.39843 1.12224 5.39843 0.861888 5.13808C0.601539 4.87773 0.601539 4.45562 0.861888 4.19527L4.19522 0.861934Z" fill="#202327"/>
</g>
<defs>
<clipPath id="clip0_3_3337">
<rect width="16" height="16" fill="white"/>
</clipPath>
</defs>
</svg>

<svg xmlns="http://www.w3.org/2000/svg" viewBox="0 0 16 16" class="sageicon"><path fill-rule="evenodd" d="M4.667.667c.368 0 .666.298.666.666v9.334h9.334a.667.667 0 1 1 0 1.333h-10A.667.667 0 0 1 4 11.333v-10c0-.368.298-.666.667-.666Z"/><path fill-rule="evenodd" d="M10.862 7.529c.26-.26.682-.26.943 0l3.333 3.333c.26.26.26.682 0 .943l-3.333 3.333a.667.667 0 0 1-.943-.943l2.862-2.862-2.862-2.862a.667.667 0 0 1 0-.942ZM4.195.862c.26-.26.683-.26.943 0l3.333 3.333a.667.667 0 1 1-.942.943L4.667 2.276 1.805 5.138a.667.667 0 0 1-.943-.943L4.195.862Z"/></svg>
